src/icons/ionic/settings.svg

<svg width="20" height="20" xmlns="http://www.w3.org/2000/svg"><circle fill="none" stroke="#000" cx="9.997" cy="10" r="3.31"/><path fill="none" stroke="#000" d="M18.488 12.285l-2.283 3.952c-.883-.741-2.02-.956-2.902-.446-.875.498-1.256 1.582-1.057 2.709H7.735c.203-1.126-.182-2.201-1.051-2.709-.883-.521-2.029-.299-2.911.446L1.5 12.285c1.073-.414 1.817-1.286 1.817-2.294-.012-1.011-.744-1.87-1.817-2.275l2.265-3.932c.88.732 2.029.954 2.922.448.868-.51 1.252-1.595 1.048-2.732h4.528c-.191 1.137.178 2.21 1.051 2.72.892.51 2.029.296 2.911-.426l2.262 3.92c-1.083.403-1.826 1.274-1.817 2.295.002 1.009.745 1.871 1.818 2.276h0z"/></svg>

<svg width="20" height="20" viewBox="0 0 20 20" xmlns="http://www.w3.org/2000/svg">
	<circle fill="none" stroke="#000" cx="9.997" cy="10" r="3.31" />
	<path fill="none" stroke="#000" d="M18.488,12.285 L16.205,16.237 C15.322,15.496 14.185,15.281 13.303,15.791 C12.428,16.289 12.047,17.373 12.246,18.5 L7.735,18.5 C7.938,17.374 7.553,16.299 6.684,15.791 C5.801,15.27 4.655,15.492 3.773,16.237 L1.5,12.285 C2.573,11.871 3.317,10.999 3.317,9.991 C3.305,8.98 2.573,8.121 1.5,7.716 L3.765,3.784 C4.645,4.516 5.794,4.738 6.687,4.232 C7.555,3.722 7.939,2.637 7.735,1.5 L12.263,1.5 C12.072,2.637 12.441,3.71 13.314,4.22 C14.206,4.73 15.343,4.516 16.225,3.794 L18.487,7.714 C17.404,8.117 16.661,8.988 16.67,10.009 C16.672,11.018 17.415,11.88 18.488,12.285 L18.488,12.285 Z" />
</svg>
